!!!OTL: KOMMT LASST UNS AUSSPAZIEREN
!!!ARE: Europa, Mitteleuropa, Deutschland
!!!SCT: B0265
!!!YEM: Copyright 1995, estate of Helmut Schaffrath.
**kern
*ICvox
*Ivox
*M6/8
*k[b-e-]
*B-:
{8f
=1
4b-
8b-
8b-
8a
8b-
=2
4cc
8a
4f}
{8f
=3
4b-
8b-
8cc
8b-
8cc
=4
4.dd
4r}
{8f
=5
4dd
8dd
8dd
8cc
8dd
=6
4.ee-
4dd}
{8dd
=7
8cc
8dd
8ee-
8f
8g
8a
=8
4.b-
4r}
==
!!!AGN: Stimmungs - Lied, Sehnsucht, Liebe
!!!ONB: ESAC (Essen Associative Code) Database: BOEHME
!!!AMT: compound duple
!!!AIN: vox
!!!EED: Helmut Schaffrath
!!!EEV: 1.0
*-
